X: 35907
T: Sandy Ower Da Lea
R: reel
M: 4/4
K: Gmajor
M:2/4
L:1/16
BcBA G2ge|dBBA A3A|BcBA G2ge|dBBA G2cA|
B2BA G2ge|dBBA A3A|BcBA G2ge|dBBA G2Bd||
g2gd efge|dBBA A3f|g2gd efge|dBBA G2Bd|
gagd efge|dBBA A3A|BcBA G2ge|dBBA G2cA||

